UI/Stats/SVG/dashboard_outline_24px.svg

<svg width="24" height="24" viewBox="0 0 24 24" fill="none" xmlns="http://www.w3.org/2000/svg">
<path d="M12 5C10.6868 5 9.38642 5.25866 8.17317 5.7612C6.95991 6.26375 5.85752 7.00035 4.92893 7.92893C3.05357 9.8043 2 12.3478 2 15C1.99813 16.3773 2.28425 17.7398 2.84 19L9 17.65C9.37576 18.0749 9.83757 18.4149 10.3548 18.6477C10.872 18.8804 11.4328 19.0005 12 19C12.5664 19.0018 13.1268 18.8833 13.6439 18.6522C14.1611 18.4212 14.6233 18.083 15 17.66L21.15 19C21.7109 17.7411 22.0005 16.3782 22 15C22 12.3478 20.9464 9.8043 19.0711 7.92893C17.1957 6.05357 14.6522 5 12 5ZM11.42 16.9C11.4531 16.9058 11.4869 16.9058 11.52 16.9C11.4874 16.91 11.4526 16.91 11.42 16.9ZM19.82 16.68L15.4 15.68L14.26 15.43L13.63 16.13C13.865 15.7996 13.9941 15.4055 14 15C13.9978 14.8278 13.9743 14.6565 13.93 14.49L16.36 12.05L15 10.64L12.56 13.07C12.3774 13.0215 12.189 12.9979 12 13C11.6359 13 11.2787 13.0995 10.967 13.2875C10.6552 13.4756 10.4007 13.7453 10.231 14.0673C10.0612 14.3894 9.98253 14.7517 10.0035 15.1152C10.0245 15.4787 10.1443 15.8296 10.35 16.13L9.74 15.45L8.6 15.69L4.17 16.69C4.05604 16.1339 3.99908 15.5676 4 15C4 12.8783 4.84286 10.8434 6.34315 9.34315C7.84344 7.84285 9.87827 7 12 7C14.1217 7 16.1566 7.84285 17.6569 9.34315C19.1571 10.8434 20 12.8783 20 15C20.0005 15.5648 19.9402 16.1281 19.82 16.68Z" fill="#0F1621"/>
</svg>

<svg xmlns="http://www.w3.org/2000/svg" width="24" height="24" viewBox="0 0 24 24"><rect width="24" height="24" style="fill:none"/><path d="M12,5A10,10,0,0,0,2,15a9.88,9.88,0,0,0,.84,4L9,17.65A4,4,0,0,0,12,19a4,4,0,0,0,3-1.34L21.15,19A9.82,9.82,0,0,0,22,15,10,10,0,0,0,12,5Zm-.58,11.9a.29.29,0,0,0,.1,0A.17.17,0,0,1,11.42,16.9Zm8.4-.22-4.42-1-1.14-.25-.63.7A2,2,0,0,0,14,15a2.09,2.09,0,0,0-.07-.51l2.43-2.44L15,10.64l-2.44,2.43A2.09,2.09,0,0,0,12,13a2,2,0,0,0-1.65,3.13l-.61-.68-1.14.24-4.43,1A8.35,8.35,0,0,1,4,15a8,8,0,0,1,16,0A7.86,7.86,0,0,1,19.82,16.68Z"/></svg>
